X:1
T:First Suite in E♭
T: First Suite in E♭ 
T: Gustav Holst arr. R. Parks I. Chaconne II. Intermezzo III. March 
T:Chaconne
T:Movement I
T:Intermezzo
T:Movement II
T:March
T:Movement III
C:Gustav Holst
%%score { ( 1 3 ) | 2 }
L:1/8
Q:1/4=86
M:3/4
K:Eb
V:1 treble nm="Piano" snm="Pno."
V:3 treble 
V:2 bass 
V:1
 z2 | z6 | z6 | z6 | z6 | z6 | z6 | z6 | z4 (G2- | G2 F2 E2- | E2) D2 (B2- | B2 A2 G2 | %12
 [EA]2 D2) (B2- | B2 E2 F2 | B,2 C2 E2) | (D3 [CE] [B,D][CE]) | z2!pp! (B2 [EGc]2 | %17
 [FBc]3 d [=Ae]2) | ([Fcd]3 e [Bdf]2 | f2) ([ce][Bd] [F=Ac]2) | ([GBe]2 [Fd][Ec] [FB]2- | %21
 [FB]2) (=AG [B,F]2- | [B,F]2 [CE][B,D] [=A,C]2) | %23
 z!<(! .C/.D/ .[CE].[B,D]/.[CE]/ .[DF].[CE]/.[DF]/ | %24
 .[EG].[DF]/.[EG]/ .[CE=A].[B,DG]/.[CEA]/ .[DGB].[CFB]/.[DGB]/!<)! | %25
!mf! .[CF=A].F/.A/ .c.A/.c/ [Ae]2 | z .B/.d/ .f.d/.f/ [db]2 | z .c/.e/ .=a.e/.a/ .[ec']2 | %28
 z .d/.f/ .b.f/.b/ [fd']2 | z .g/.c'/ .[ge'].[=ac']/.[gb]/ .[^fa]2 | z B/d/ [eg][ce]/[Bd]/ [=Ac]2 | %31
!<(! z .B/.c/ .[Bd].c/.[Bd]/ .[ce].[Bd]/.[ce]/ | %32
 .[Bdf].[ce]/.[Bdf]/ .[FBd].[Ec]/.[FBd]/!<)!!f! z .[Beg] | z .[Acf]/.[Acg]/ .[cfa].[Acf] z .[Ge] | %34
 z .[Bd]/.[ce]/ .[Bdf].[Bd] z .[Bdb] | z .[eg]/.[ef=a]/ .[egb].[Beg] z .[=Aef] | %36
 z .[Bd]/.[ce]/ .[Bdf].[FBd] z .[Bdg] | z .[ce]/.[df]/ .[ceg].[Gce] z .[Acf] | %38
 z .[GB]/.[Bd]/ .[Ace].[EAc] z .[Aceg] | z [df]/[eg]/ [fa][eg]/[fa]/ [gb][fa]/[gb]/ | %40
 [ac'][gb]/[ac']/ [fd'][ec']/[fd']/ ([ge']/d'/c'/b/ | b/a/g/f/ =e/f/a/f/) (a/g/f/_e/) | %42
 (e/d/c/B/ =A/B/d/c/) (B/_A/G/F/) | (F/E/D/C/ =B,/C/E/C/) (^G,/=A,/C/A,/) | %44
 (B,/C/D/E/ F/G/=A/B/ c/d/e/f/ | g/=a/b/c'/ d'/e'/d'/c'/ b/a/g/f/ | e/f/g/=a/ b/c'/b/a/ g/f/e/f/ | %47
 d/e/f/g/ =a/b/c'/d'/ c'/b/a/g/ |!>(! f/d/B/c/ d/e/f/d/ e/B/G/E/)!>)! |!p! [A,CF]4 [CAc]2 | %50
 [B,GB]4 [G,EG]2 | [CE]2 [A,CF]4 | [D,G,B,]4 G,2 | [A,C]4 [A,B,D]2 | [B,EG]2 [DF]4 | [B,EB]6- | %56
 [B,EB]4!mp! Bb | ag fe de | f2 B2 Be | [Gc][Gd] [Ac][GB] [FA][EG] | [EA]2 [DF]2 [DB]D | %61
 EG c[Ge] [Bd][Ac] | Be [ca][ec'] [db][ca] | [ef]c ed [fg]d | fe [fa]d (3[eg]fe | a2 d2 (3[eg]fe | %66
 [fb]4 (3b=ag | [gc']2 e2 (3[cc']=af | d4 (3bg=e | [Ac]4 (3afd | [GB]2 cd e[eg] | f4 ag | e4 z2 | %73
 z2 ([Fc]2 =B2 | [Ec]3 d e2) | z2 (A2 fB | c2 [cb]2 [da]2) | ([ec']2 [cb]2 [da]2) | %78
 ([eg]3 [df] [ce]2- | [ce]2 [=Bd]2 [=Ac]2- | [Ac]2 [G=B]) z[K:bass]!p! [E,E]2 | [D,G,D]4 G,2 | %82
 [A,,F,A,]4 [C,C]2 | [E,A,E]2 [D,D]4 | [A,FA]4 [Cc]2 | [G,CG]4 [F,CF]2- | [F,CF]2 [C,C]2 [D,B,D]2 | %87
 [E,G,]6- | [E,G,]4 [G,,G,]2 | [E,A,]4 [E,E]2 | [D,G,D]4 [B,,B,]2 | G,2 [A,,C,A,]4 | %92
 [D,,B,,D,]4 B,,2 | [A,,E,]4 F,2 | [B,,F,B,]2 [A,,A,]4 | [D,A,CD]6- | [D,A,CD]4[K:treble]!mp! (E2 | %97
 F2 C2 [Dc]2 | [GB]2) D2 ([EG]2 | [CE]2 [A,F]2 B,2 | [A,B,]2) F,2 (G,2 | C2 E,2 [F,D]2 | %102
 [CG]2 [DF]2) B,2 | (A,2 B,2 G,2) | B4!mf! ([Ge]2 | [Af]4 [cac']2 | [Bgb]4 g2 | [Ge]2 [Af]4 | %108
 B4) G2 | [Bc]4 [Fd]2 | [Geg]2 [Fdf]4 |!<(! ([ABa]2 [Gg]2) ([Bcb]2 | [Ada]2) ([cdc']2 [Beb]2) | %113
 ([e=ae']2 [dfd']2)!<)!!ff! !>![Beg]2- | [Beg]2 f2 [Ge]2 | [Bef]2 d2 [ebe']2- | %116
 [ebe']2 [dfbd']2 [ce=ac']2 | [dfbd']2 [cac']2 [Bdfb]2- | [Bdfb]2 [Ee]2 [FAcf]2 | %119
 [B,DB]2 [CAc]2 [Ee]2 | [Fe]2 G2 A2 | [Bd]2 c2 d2 | [Ace]6 | [FA_df]6 | [Geg]6 | [Acfa]4 [cac']2 | %126
 [ee']6- | [ee']4 !>![ee']2- | [ee']4 !>![ee']2- | [ee']4 [GAce]2- | [GAce]2 [FAcdf]4 | %131
 !fermata![Beb]6 |][M:2/4][Q:1/4=140]!mf! .[Gceg].[eg] .[eg].[eg] | .[eg].[eg] .[eg].[eg] | %134
 .[df].[eg] .[eg][eg] | .g.g .g.g | .[eg].[eg] .[eg].[eg] | .[eg].[eg] .[eg].[eg] | %138
 .[df].[eg] .[eg][eg] | .g.g .g.g | .[eg].[eg] .[eg].[eg] | .[eg].[eg] .[eg].[ce] | %142
 .[_df].[df] .[df].[df] | .[_df].[df] .[df].[df] | .f.f .f.f | .[_df].[df] .[df].[df] | %146
 .[_df].[df] .[df].[df] | .[_df].[df] .[df].[df] | .[c=e].[ce] .[ce].[ce] | %149
 .[=Bd].[Bd] .[Bd].[eg] | .[df].[eg] .[eg][eg] | .g.g .g.g | .[eg].[eg] .[eg].[eg] | %153
 .[eg].[eg] .[eg].[eg] | .[df].[eg] .[eg][eg] | .g.g .g.g | [ceg]4 | z4 |!p! [B,EG]2 [B,EG]2 | %159
 [B,EG]2 [B,EG]2 | (G/E/C/E/ .G)!>![E=Ac] | (G/E/C/E/ .G)!>![E=Ac] | [DEGB]2 [DEGB]2 | %163
 [DEGB]2 [DEGB]2 | (B/G/E/G/ .B)!>![Gce] | (B/G/E/G/ .B)!>![Gce] |!<(! (d/B/G/B/ d)!>![B=eg] | %167
 (d/B/G/B/ d)!>![B=eg] | (f/d/B/d/ f)!>![eb] | (f/d/B/d/ f)!>![eb] | [Bdf][=eg] [Bdf][eg] | %171
 [Bdf][=eg] [Bdf][eg] | [Bdf][=eg] [Bdf][eg] | [Bdf][=eg] [Bdf][eg]!<)! | %174
!mp! !>![=e=a]2 .[_eg].[eg] | .g.g .g.g | .[eg].[eg] .[eg].[eg] | .[eg].[eg] .[eg].[eg] | %178
 .[df].[eg] .[eg][eg] | .g.g .g.g | .[eg].[eg] .[eg].[eg] | .[eg].[eg] .[eg].e | %182
 .[_df].[df] .[df].[df] | .[_df].[df] .[df].[df] | .f.f .f.f | .[_df].[df] .[df].[df] | %186
 .[_df].[df] .[df].[df] | .[_df].[df] .[df].[df] | .[c=e].[ce] .[ce].[ce] | %189
 .[=Bd].[Bd] .[Bd]!mf!.g | !>!f !>!c'2 .c' | (e'>d' c').d' | (b>c' b).g | b3 !>!e | %194
 !>!f !>!c'2 .c' | (e'>d' c').b | c'3 b | c'3 [DFB] |[M:4/4] [EGc] z!mp! (C2 D2 E2 | %199
 F2) (F2 c2) (cd) | (e2 dc B2) (c2 | B3 G) (GF E2 | [A,CF]6) E2 |!<(! F2 F2 c2 cd | e2 dc f2 g2 | %205
 f3 d dc B2!<)! |!mf! c6 c2 | e2 cB A2 A2 | B2 E2 E2 F2 | C3 B, CD E2 | F6 E2 | F2 F2 c2 cd | %212
 ed c2 f2 dc | B2 GF E2 E2 | [F,A,]CFG AB[Gc]g | [fac']Afa gfed | c'gfc dfec | dcBc BAGA | %218
 AGAc [Af] z [cg]2 | fcfa gfed | egbc' d'c'bg | agfg fede | cdeg c' z z2 | aeab c'bag | %224
 e'be'f' g'e'c'b | Acef edcG | Bcdf bf'a'g' | f'c'f'a' g'f'e'd' |!>(! c'gc'e' d'bd'f' | %229
 g'e'c'd' e'c'gb!>)! |[M:2/4]!p! F3 E | F z z2 | z2 .[FA].[FA] | .[FA].[FA] .[FA].[FA] | %234
 .[FA].[FA] .[FA].[FA] | .[=EG].[EG] .[EG].[EG] | .[E_G].[EG] .[EG].[EG] | .[E_G].[EG] .[EG].[EG] | %238
 .[EF].[EF] .[EF].[EF] | .[EF].[EF] .[EF] z | .[_df].[df] .[df].[df] | .[_df].[df] .[df].[df] | %242
 .[_df].[df] .[df].[df] | .[_df].[df] .[df].[df] | .[_df].[df] .[df].[df] | .[_df].e .d.f | %246
 [c=e][ce] [ce][ce] | [=Bd][Bd] [Bd]!>!e | !>!f !>!c'2 c' | (e'>d' c').d' | (b>c' b).g | b3 !>!e | %252
 !>!f !>!c'2 .c' | (e'>d' c').b ||[K:C][M:4/4] [cegc']4- [cegc'] z z2 | [B,F]8 | [EG]8 | %257
 [A,CE]2 [A,CE]2 [A,CE]2 [A,CE]2 | [^F,E]/C/A,/C/ E[CEA] E/C/A,/C/ EE | ^F d2 d ^f>e de | %260
 c>d cA c3 c | [DFB]2 [DFB]2 [DFB]2 [DFB]2 | [CA]/E/C/E/ A[Ace] A/E/C/E/ A[Ace] | F c2 c e>d (cd) | %264
 (c>d c)A c3 e | f c'2 c' e'>d' c'd' | [ege']2 [ege']2 [ege']2 [ege']2 | %267
 [fd']/a/f/a/ d'a' d'/a/f/a/ d'a' | c'/g/e/g/ c'g' b/f/d/f/ bf' | a/e/c/e/ ae' g/d/_B/d/ gd' | %270
 [Acf]4 [GBe]4 | A f2!8va(! a' c''>b' a'b' | [c'e'g']8 | z2 [c'e'g'c'']!8va)! z !fermata!z4 |] %274
[K:Eb][M:2/2][Q:1/2=134]"^\n"!ff! !trill(!Tg8- | !trill)!g8 | z8 | z4 !>![Beg]4 | %278
!f! [Acf]2 [Ac]2 [Ae]2 [Ac]2 | [Ad]edc B2 [FA]2 | [EG]2 [Ec]2 cB [Fc]2 | [EG]2 [Ec]2 [Beg]4 | %282
 [Acf]2 [Ac]2 [Ae]2 [Ac]2 | [Ad]edc B2 [FA]2 | [EG]2 [Ec]2 cd[Fc]B | [Ec]2 z2 !>![FB]4 | %286
 [B,EG]3 [B,EG] [B,EG]2 [B,EG]2 | [B,EG]3 [B,EG] [B,EG]2 [EGB]2 | [EGe]2 [EGd]2 [EGc]2 [EGB]2 | %289
 [EGe]2 [EGd]2 [EGc]2 [EGB]2 | [EG]3 [EG] [EG]2 [EG]2 | [EG]3 [EG] [EG]2 [EGB]2 | %292
 [G=Bg]2 [GBf]2 [GBe]2 [Gd]2 | [G=Bg]2 [GBf]2 [GBe]2 [Gd]2 | [=EBc]3 [EBc] [EBc]2 [EBc]2 | %295
 [=EBc]3 [EBc] [EBc]2 [EBc]2 | [Aca]2 [Acg]2 [Acf]2 [Fce]2 | [DFd]2 [DFc]2 [DFB]2 [DFA]2 | %298
!<(! [GB]3 B B2 B2 | [=EBc]3 [EBc] [EBc]2 [EBc]2!<)! |!ff! [=Aeg]2 e2 c2 A2 | B2 z2 !>![Beg]4 | %302
!f! [Acf]2 [Ac]2 [Ae]2 [Ac]2 | [Ad]edc B2 [FA]2 | [EG]2 [Ec]2 cB [Fc]2 | [EG]2 [Ec]2 [Beg]4 | %306
 [Acf]2 [Ac]2 [Ae]2 [Ac]2 | [Ad]edc B2 [FA]2 | [EG]2 [Ec]2 cd[Fc]B | [Ge]2 z2 [EGBe]2 z2 || %310
[K:Ab][K:bass]!ff! !>![A,C]8- | [A,C]8 | z8 | z4!mf! (A,4 | [F,B,]4 [B,F]4 | [A,E]4 D2 C2 | %316
 [D,B,]2 A,2 F,4 | [E,G,]4) ([E,A,]4 | [G,B,]4 [A,C]4 | [B,E]4 [A,C]4 | [A,F]8- | [A,F]4) ([EG]4 | %322
 [EA]6 [DG]2 | [CF]4 [B,E]4 | [A,C]4 [A,D]4 | [B,E]4) ([G,E]4 | [A,A]4 [B,G]4 | [CF]4 [G,E]4 | %328
 [A,C]8- | [A,C]4) B,4 | [F,A,]4 [B,,F,]4 | ([C,F,]2 G,2 [F,A,]4) | ([G,B,]4 G,2 F,2 | E,4) E,4 | %334
 ([A,C]4 [F,A,]4 | [E,A,]2 B,2 [A,C]2 D2 | [G,E]8-) | [G,E]4 (A,4 | [G,B,]4 F4 | [A,E]4 [E,D]2 C2 | %340
 [F,B,]2 A,2 [D,F,]4 | [C,E,]4) (A,4 | [G,B,]4 F4 | E2 C2 [G,B,]4 | %344
 [F,A,]4)[K:treble]!f! ([cec']4- | [cec']4 [Bgb]4 | [Aa]4 [Bf]4) | ([Af]2 g2 [Aa]4) | %348
 ([Bgb]4 [Geg]2 [Ff]2 | [Ee]4) ([EGe]4 | [cec']4 [Aca]4) | ([Aca]2 [Bb]2 [cfc']2 [dd']2 | %352
 [eae']8-) | [eae']4 ([Aca]4 | [Bgb]4 [ff']4 | [eae']4 [dd']2 [cc']2 | [Bb]2 [Aa]2 [Ff]4 | %357
 [Ece]4) [Aca]4 | [Bgb]4 [ff']4 | [ee']2 [cc']2 [Bgb]4 | [Acea]8- | [Acea]4!p! !>![eac']4 | %362
 [db]2 [df]2 [da]2 [df]2 | (ga[dg]f e2) d2 | c2 f2 (fe f2) | c2 f2 !>![eac']4 | %366
 [db]2 [df]2 [da]2 [df]2 | (gagf e2) d2 |!>(! (cdc=B c2) c2 | (c=dc=B c2) c2!>)! | %370
"^C"!pp! [G,C=E]3 [G,CE] [G,CE]2 [G,CE]2 | [G,C=E]3 [G,CE] [G,CE]2 [CEG]2 | c2 B2 A2 G2 | %373
 c2 B2 A2 G2 |!<(! [A,CDF]3 [A,CDF] [A,CDF]2 [A,CDF]2 | [A,CDF]3 [A,CDF] [A,CDF]2 [CDFA]2!<)! | %376
!mp! d2 c2 B2 A2 | d2 c2 B2 A2 |!<(! [=D^F=A]3 [DFA] [DFA]2 [DFA]2 | %379
 [=D^F=d]2 [DFc]2 [DFB]2 [DF=A]2 | [E_GB]3 [EGB] [EGB]2 [EGB]2 | %381
 [_GB_g]2 [GBf]2 [GB=d]2 [GBe]2!<)! ||[K:Eb]!f! [G=Bd]3 [GBd] [GBd]2 [GBd]2 | %383
 [G=Bd]3 [GBd] [GBd]2 [GBd]2 | [G=Bg]8- | [GBg]8 | [G=Be]3 [GBe] [GBe]2 [GBe]2 | %387
 [G=Be]3 [GBe] [GBe]2 [GBe]2 | [Gcg]8- | [Gcg]8 | [=Aeg=a]3 [Aega] [Aega]2 [Aega]2 |!<(! [Begb]8 | %392
 [ac']8 | [ac'd']4 [ac'e']4!<)! |!ff! [ac'e'g']8- | [ac'e'g']8 | [Acf]2 [Ac]2 [Ae]2 [Ac]2 | %397
 ([Ad]edc B2) [FA]2 | [EG]2 [Ec]2 cB [Fc]2 | [EG]2 [Ec]2 [Beg]4 | [Acf]2 [Ac]2 [Ae]2 [Ac]2 | %401
 [Ad]edc B2 [FA]2 | [EG]2 [Ec]2 cd[Fc]B | [Ec]2 z2 !>![DB]4 | [EG]3 [EG] [EG]2 [EG]2 | %405
 [EG]3 [EG] [EG]2 [EGB]2 | [GBe]2 (3ded c2 B2 | [GBe]2 (3ded c2 B2 | [EG]3 [EG] [EG]2 [EG]2 | %409
 [EG]3 [EG] [EG]2 [EGB]2 | [Gdg]2 (3fgf e2 d2 | [Gdg]2 (3fgf e2 d2 | [GBc]3 [GBc] [GBc]2 [GBc]2 | %413
 [GBc]3 [GBc] [GBc]2 [GBc]2 | [Ada]2 (3gag f2 e2 | [Bdb]2 (3aba g2 f2 | [cec']2 (3bc'b a2 g2 | %417
 [dgd']2 (3c'd'c' b2 a2 | [ege']2 (3d'e'd' c'2 b2 | [fbf']2 z2 !>![Beg]4 | %420
 [Af]2 [Ac]2 [Ae]2 [Ac]2 | ([Ad]edc B2) [FA]2 | [EG]2 [Ec]2 [Ec]B [Fc]2 | %423
 [ee']2 [gg']2 [bg'][ff'] [gg']2 | [Af]2 c2 [Ae]2 c2 | (dedc B2) A2 | [DG]2 z2 ([G=Bg]4- | %427
 [GBg]4 [Fdf]4 | [EGe]4 [CFc]4) | ([CGc]2 [Dd]2 [Ece]4) | ([Fdf]4 [Dd]2 [Cc]2 | [B,B]4) ([B,DFB]4 | %432
 [GBg]4 [EGe]4) |[Q:1/2=120]"_rit." ([EAe]2 [Ff]2 [Gcg]2 [Aa]2 |[Q:1/2=110] [Beb]8- | %435
 [Beb]4)!fff![Q:1/2=100]"_Meno mosso." ([EGce]4 | [FBdf]4 [cfc']4 | [Beb]4[Q:1/2=90] [Aea]2 [Gg]2 | %438
 [FAcf]2 [Ece]2 [CEAc]4 | [B,EGB]4) ([EGce]4 |[Q:1/2=80] [FAcf]4 [ceac']4 | %441
[Q:1/2=70] [Beb]2 [Geg]2 [FBdf]4) |!ffff![Q:1/2=134]"_Più mosso" [EGBe]3 [EGBe] [EGBe]2 [EGBe]2 | %443
 [EGBe]3 [EGBe] [EGBe]2 [EGBe]2 | [EAc]6 !>!g2 | !>!f2 !>!c6 | [EGBe]3 [EGBe] [EGBe]2 [EGBe]2 | %447
 [EGBe]3 [EGBe] [EGBe]2 [EGBe]2 | [EGBe]3 [EGBe] [EGBe]2 [EGBe]2 | [EGBe]3 [EGBe] [EGBe]2 [EGBe]2 | %450
 z2 (3:2:2z2 G, (3A,B,C (3DEF | (3GAB (3cde (3fga (3bc'd' | !>![egbe']2 z2 z4 |] %453
V:2
!p! ([E,,E,]2 | [F,,F,]4 [C,C]2 | [B,,B,]4 [G,,G,]2 | [E,,E,]2 [F,,F,]4 | [B,,,B,,]4) ([G,,,G,,]2 | %5
 [C,,C,]4 [D,,D,]2 | [G,,G,]2 [F,,F,]4 | [B,,B,]6- | [B,,B,]4) ([E,B,]2 | [F,A,C]4 C2 | %10
 B,4) ([D,G,]2 | [C,E,]2 F,4 | [B,,B,]4) ([G,B,D]2 | [C,E,]4 [C,A,]2 | G,2 [F,A,]4) | B,4 z2 | %16
 [B,DF]4 ([E,,E,]2 | [F,,F,]4 [C,C]2 | [B,,B,]4 [G,,G,]2 | [E,,E,]2 [F,,F,]4 | %20
 [B,,,B,,]4) ([G,,,G,,]2 | [C,,C,]4 [D,,D,]2 | [G,,G,]2 [F,,F,]4 | [B,,B,]6- | [B,,B,]4) [E,,E,]2 | %25
 [F,,F,]4 [C,C]2 | [B,,B,]4 [G,,G,]2 | [E,,E,]2 [F,,F,]4 | [B,,,B,,]4 [G,,,G,,]2 | %29
 [C,,C,]4 [D,,D,]2 | [G,,G,]2 [F,,F,]4 | [B,,B,]6- | [B,,B,]4 [E,,E,]2 | [F,,F,]4 [C,C]2 | %34
 [B,,B,]4 [G,,G,]2 | [E,,E,]2 [F,,F,]4 | [B,,,B,,]4 [G,,,G,,]2 | [C,,C,]4 [D,,D,]2 | %38
 [G,,G,]2 [F,,F,]4 | [B,,B,]6- | [B,,B,]4 [E,,B,,E,] z | [F,,D,F,] z z2 [C,E,C] z | %42
 [B,,F,B,] z z2 [G,,B,,G,] z | [E,,C,E,] z [F,,=A,,E,F,] z z2 | [B,,,D,,F,,B,,] z z2 [G,,,G,,] z | %45
 [C,,E,,G,,C,] z z2 [B,,,B,,D,] z | [G,,E,G,] z [F,,E,F,] z z2 | [B,,D,F,B,]6- | %48
 [B,,D,F,B,]2 A,,2 G,,2 | F,,E,, D,,E,, F,,D,, | G,,F,, E,,F,, G,,E,, | A,,G,, F,,G,, A,,F,, | %52
 B,,A,, G,,A,, B,,G,, | A,,C, E,A, G,F, | E,G, B,C B,A, | G,A, G,F, E,F, | E,D, C,B, A,G, | %57
[K:treble] F4 c2 | B4 G2 | E2 F4 | B,4 G,2 | C4 D2 | G2 F4 | B6- | B4 E2 | F4 c2 | B4 [GB]2 | %67
 E2 F4 | B,2 D2 [G,=EG]2 | C2 G2 [DF]2 | G,2 [A,F]2 E2 | (3[Be]dc (3dcB (3cBA | [EB]4 (E2 | %73
 D4 G,2 | A,4 C2 | E2 D4 | A4) (c2 | G4) F2 | [CA]2 D4 | [G,F]4 E2 | D4[K:bass] C,,2 | %81
 G,,2 C,,2 G,,2 | C,,2 F,,2 C,,2 | F,,2 C,,2 F,,2 | C,,2 F,,2 C,,2 | E,,2 C,,2 F,,2 | %86
 C,,2 G,,2 C,,2 | G,,2 C,,2 A,,2 | C,,2 B,,2 C,,2 | [A,,C,]2 C,,2 A,,2 | B,,,2 G,,2 B,,,2 | %91
 G,,2 A,,,2 F,,2 | G,,,2 D,,2 G,,,2 | C,,2 F,,,2 C,,2 | F,,,2 C,,2 F,,,2 | C,,2 F,,,2 C,,2 | %96
 F,,,2 C,,2 F,,,2 | B,,,3 B,,3 | B,,,3 B,,3 | B,,,3 B,,3 | B,,,3 B,,3 | B,,,3 B,,3 | B,,,3 B,,3 | %103
 B,,,3 B,,3 | [B,,F,]2 G,2 E,2 | [B,,D,]E, F,G, A,B, | CD EF GA | B,C DC B,A, | G,A, G,F, E,F, | %109
 ED CD CB, | A,B, A,G, F,G, | F,D, F,E, G,=E, | G,F, A,^F, A,G, | C=A, CB, [E,,E,]2 | %114
 [F,,F,]4 [C,C]2 | [B,,B,]4 [G,,G,]2 | [E,,E,]2 [F,,F,]4 | [B,,,B,,]4 [G,,,G,,]2 | %118
 [C,,C,]4 [D,,D,]2 | [G,,G,]2 [F,,F,]4 | ([B,,F,]2 G,2 A,2 | B,2 C2 B,2) | !>![E,C]4 !>!G,2 | %123
 !>![E,,E,]4 !>!_D,2 | !>![E,B,]2 !>!C4 | !>![E,,F,]4 !>!D,2 | !>![E,G,]4 !>!A,2 | %127
 !>![B,D]2 !>![A,C]2 !>![E,,E,]2 | !>![B,CEG]2 !>![A,CF]2 !>![E,,E,]2 | [D,E,B,]2 [C,E,A,]2 z2 | %130
 [E,,,E,,]6 | [EG]6 |][M:2/4] .[C,,G,,C,] z z2 | z2 z[K:treble] !>!E | !>!F !>!c2 .c | (e>d c).d | %136
 (B>c B).G | B3 !>!E | !>!F !>!c2 .c | (e>d c).B | c4- | c3 .c | (B>c B).A | .G.A .B.G | (A3 _d | %145
 A3) .c | (B>c B).A | .F.E ._D.F | G4- | G3 !>!E | !>!F !>!c2 .c | (e>d c).d | (B>c B).G | %153
 B3 !>!E | !>!F !>!c2 .c | (e>d c).B |[K:bass]!>(! .C,,.G,, .C,,.G,, | .C,,.G,, .C,,.G,,!>)! | %158
 .C,,.G,, .C,,.G,, | .C,,.G,, .C,,.G,, | .C,,.G,, .C,,.G,, | .C,,.G,, .C,,.G,, | %162
 .C,,.G,, .C,,.G,, | .C,,.G,, .C,,.G,, | .C,,.G,, .C,,.G,, | .C,,.G,, .C,,.G,, | %166
 .C,,.G,, .C,,.G,, | .C,,.G,, .C,,.G,, | .C,,.G,, .C,,.G,, | .C,,.G,, .C,,.G,, | %170
 .C,,.G,, .C,,.G,, | .C,,.G,, .C,,.G,, | .C,,.G,, .C,,.G,, | .C,,.G,, .C,,.G,, | %174
[K:treble] !>!F !>!c2 .c | (e>d c).d | (B>c B).G | B3 !>!E | !>!F !>!c2 .c | (e>d c).B | c4- | %181
 c3 .c | (B>c B).A | .G.A .B.G | (A3 _d | A3) .c | (B>c B).A | .F.E ._D.F | G4- | G3 !>!e | %190
 .[df].[eg] .[eg][eg] | .[eg].[eg] .[eg].[eg] | .[eg].[eg] .[eg].[eg] | .[eg].[eg] .[eg].g | %194
 .[df].[eg] .[eg][eg] | .[eg].[eg] .[eg].[eg] | .[eg].[eg] .[eg].[Gdf] | .[CEG].[EG] .[EG].G, | %198
[M:4/4][K:bass] C, z z2 z4 | [F,A,]4 [FA]4 | [GB]2 z2 z2 [A,E]2 | [B,D]4 [CE]4 | %202
 (F,,C,F,G, A,C [C,G,]2 | [F,,A,,C,]) z z2 [F,A,]4 | [G,B,]2 [F,A,]E, [D,B,]2 C,2 | D,4 G,4 | %206
 [CEG]4 B,4 | [A,C]2 ED C2 C2 | [G,E]2 C2 B,2 ([A,C]2 | [F,A,]4 [E,G,]4 | %210
 [D,F,]2 [C,E,]2 [B,,D,]2 [C,G,]2) | [F,,A,,F,]2 z2 [F,A,]4 | [CG]F E2 [B,D]2 FD | %213
 [G,E]3 [E,D] [A,C]2 [G,B,]2 |[K:treble] F6 E2 | F2 (F2 c2) (cd) | (e2 dc B2) (c2 | B3 G) (GF E2 | %218
 [A,CF]6) E2 | F2 F2 c2 cd | e2 dc f2 g2 | f3 d dc B2 | c6 c2 | e2 cB A2 A2 | B2 E2 E2 F2 | %225
 C3 B, CD E2 | F6 E2 | F2 F2 c2 cd | ed c2 f2 dc | B2 GF E2 E2 | %230
[M:2/4][K:bass] [F,A,C][A,C] [A,C][A,C] | [F,A,C][A,,C,] [A,,C,][G,,C,E,] | !>![A,,C,F,] !>!C2 .C | %233
 (E>D .C).D | (B,>C) .B,.F, | B,4- | B,3 B, | (_D>C .B,).C | =A,4- | A,3 =A,, | (B,,>C, .B,,).A,, | %241
 .G,,.A,, .B,,.G,, | (A,,3 _D, | A,,3) C, | (B,,>C, .B,,).A,, | .F,,.E,, ._D,,.F,, | G,,4- | %247
 G,,3[K:treble] .[EG] | .[DF].[EG] .[EG].[EG] | .[EG].[EG] .[EG].[EG] | .[EG].[EG] .[EG].[EG] | %251
 .[EG].[EG] .[EG].[EG] | .[EG].[EG] .[EG].[EG] | .[EG].[EG] .[EG].[EG] || %254
[K:C][M:4/4][K:bass] C,,G,,C,,G,, C,,G,,!mf! ([C,,C,]2 | D,2) (D,2 A,2) (A,B,) | %256
 (C2 B,A, G,2) (A,2 | G,3 E,) (E,D, C,2) | D,6 (C,2 | D,2) (D,2 A,2) (A,B,) | (CB, A,2 D2) (E2 | %261
 D3 B,) (B,A, G,2) | A,6 (A,2 | [A,C]2 A,G, F,2) (F,2 | [E,G,]2 C,2 C,2) [D,D]2 | %265
 [A,,F,A,]3 [G,,G,] [A,,A,][B,,B,] [C,C]2 | ([D,G,D]6 [C,C]2) | [D,F,]2 (D,2 A,2) (A,B,) | %268
 (CB, A,2 D2) (B,A,) | (G,2 E,D, C,2) C,.C, | .D, A,2 .A, .B, G2 G | [F,A,D]8 | %272
 z G,, C,G,[K:treble] CGcg | c'[K:bass] z .[C,E,G,C] z z4 |][K:Eb][M:2/2][K:treble] z2 e2 d2 G2 | %275
 z2 E2 D2 G,2 |[K:bass] D,2 z2 G,,2 z2 | !>!G,,,4 !>![E,,G,,B,,E,]4 | %278
 [F,,F,]2 [A,C]2 [F,,F,]2 [A,C]2 | [B,,B,]2 [B,D]2 [G,,G,]2 [B,D]2 | C,2 [E,G,]2 G,,2 [D,F,]2 | %281
 C,2 [E,G,]2 [E,,G,,B,,E,]4 | [F,,F,]2 [A,C]2 [F,,F,]2 [A,C]2 | [B,,B,]2 [B,D]2 [G,,G,]2 [B,D]2 | %284
 C,2 [E,G,]2 G,,2 [G,D]2 | [C,C]2 z2 !>![D,B,]4 | [E,,E,]6 B,,2 | [E,,E,]6 B,,2 | %288
 [G,,G,]2 z2 z2 [B,,B,]2 | [G,,G,]2 z2 z2 [B,,B,]2 | [E,B,]2 D2 C2 [B,,B,]2 | %291
 [E,B,]2 D2 C2 [B,,B,]2 | [G,,G,]2 z2 z2 [=B,,=B,]2 | [G,,G,]2 z2 z2 [=B,,,=B,,]2 | %294
 [C,,C,]6 [=E,,=E,]2 | [C,,C,]6 [=E,,=E,]2 | [F,,F,]6 [A,,A,]2 | [F,,F,]6 [D,,D,]2 | %298
 [G,D]2 F2 E2 [B,D]2 | [G,C]2 B,2 =A,2 [B,,G,]2 | [F,,F,]2 z2 z4 | z4 !>![E,,G,,B,,E,]4 | %302
 [F,,F,]2 [A,C]2 [F,,F,]2 [A,C]2 | [B,,B,]2 [B,D]2 [G,,G,]2 [B,D]2 | C,2 [E,G,]2 G,,2 [D,F,]2 | %305
 C,2 [E,G,]2 [E,,G,,B,,E,]4 | [F,,F,]2 [A,C]2 [F,,F,]2 [A,C]2 | [B,,B,]2 [B,D]2 [G,,G,]2 [B,D]2 | %308
 C,2 [E,G,]2 G,,2 [G,D]2 | [E,B,]2 z2 [E,,B,,E,]2 z2 ||[K:Ab] z4 [A,,A,]2 z2 | %311
 [G,,G,]2 z2 [F,,F,]2 z2 | [G,,G,]2 z2 [F,,F,]2 z2 | [E,,E,]2 z2 [F,,F,]2 z2 | %314
 [D,,D,]2 z2 [B,,,B,,]2 z2 | [C,,C,]2 z2 [A,,,A,,]2 z2 | [B,,,B,,]2 z2 [D,,D,]2 z2 | %317
 E,,2 z2 C,2 z2 | B,,2 z2 A,,2 z2 | G,,2 z2 A,,2 z2 | [D,,D,]2 z2 [F,,F,]2 z2 | %321
 [A,,A,]2 z2 [D,D]2 z2 | [C,C]2 z2 [B,,B,]2 z2 | [A,,A,]2 z2 [G,,G,]2 z2 | [F,,F,]2 z2 B,,2 z2 | %325
 G,,2 z2 E,,2 z2 | F,,2 z2 G,,2 z2 | A,,2 z2 B,,2 z2 | C,2 z2 D,2 z2 | E,2 z2 E,,2 z2 | %330
 F,,2 z2 G,,2 z2 | A,,2 z2 F,,2 z2 | E,,2 z2 B,,2 z2 | G,,2 z2 E,,2 z2 | %334
 [A,,,A,,]2 z2 [B,,,B,,]2 z2 | [C,,C,]2 z2 [F,,F,]2 z2 | [E,,E,]2 z2 [F,,F,]2 z2 | %337
 [G,,G,]2 z2 [F,,F,]2 z2 | [E,,E,]2 z2 [D,,D,F,]2 G,2 | [C,,C,]2 z2 [A,,,A,,]2 z2 | %340
 D,,2 z2 F,,2 z2 | A,,2 z2 [F,,F,]2 z2 | [E,,E,]2 z2 [D,,D,]2 z2 | [C,,C,]2 z2 [E,,E,]2 z2 | %344
 [A,,,A,,]2 z2 [C,,C,]2 z2 | [D,,D,]2 z2 [E,,E,]2 z2 | [F,,F,]2 z2 [G,,G,]2 z2 | %347
 [A,,A,]2 z2 [D,,D,]2 z2 | [E,,E,]2 z2 B,,2 z2 | G,,2 z2 E,,2 z2 | A,,2 z2 [G,,G,]2 z2 | %351
 [F,,F,]2 z2 [D,,D,]2 z2 | [C,,C,]2 z2 [B,,,B,,]2 z2 | [C,,C,]2 z2 [F,,F,]2 z2 | %354
 [E,,E,]2 z2 [D,,F,,D,]2 G,,2 | [C,,C,]2 z2 [A,,,E,,A,,]2 z2 | [F,,A,,D,]2 z2 F,,2 z2 | %357
 A,,2 z2 [F,,F,]2 z2 | [E,,E,]2 z2 [D,,F,,D,]2 G,,2 | [C,,A,,C,]2 z2 [E,,E,]2 z2 | %360
 [A,,,A,,]2 z2 [E,,E,]2 z2 | [A,,A,]2 z2 !>![A,E]4 |[K:treble] B,2 [DF]2 B,2 [DF]2 | %363
 E2 [GB]2 C2 [GB]2 | F2 [Ac]2 C2 [GB]2 | F2 [Ac]2 !>![A,EA]4 | B,2 [DF]2 B,2 [DF]2 | %367
 E2 [GB]2 C2 [GB]2 |[K:bass] [F,A,C]4 [F,A,C]2 !>![F,A,C]2 | [F,A,C=D]4 [F,A,C]2 [F,A,C]2 | %370
 C,6 G,,2 | C,6 G,,2 | [C,,C,]2 z2 z2 [=E,,=E,]2 | [C,,C,]2 z2 z2 [=E,,C,]2 | C,6 F,,2 | C,6 F,,2 | %376
 [C,,C,]2 z2 z2 F,,2 | [C,,C,]2 z2 z2 [F,,D,]2 | [C,=D,]2 =A,4 ^F,,2 | C,2 z2 z2 [^F,,=D,]2 | %380
 [C,_G,]2 C4 _G,,2 | C,2 z2 z2 _G,,2 ||[K:Eb] [G,,=B,,D,G,]2 z2 z4 | z8 | z2 E2 D2 G,2 | %385
 E,2 D,2 G,,2 !>!G,,,2 | z8 | z8 | z2 F2 E2 G,2 | F,2 E,2 G,,2 !>!G,,,2 | G,3 G, G,2 G,2 | %391
 G,2 F,2 E,2 G,,2 | z2 C2 G2 F2 | C2 G2 F2 C2 | [A,CEG]8 | [F,,,F,,]4 !>![E,E]4 | !>!F,4 !>!C4 | %397
 !>!B,4 !>!A,2 !>!G,2 | !>!F,2 !>!E,2 !>!C,4 | !>!B,,4 !>!E,4 | !>!F,4 !>!G,4 | !>!B,4 !>!G,4 | %402
 [C,C]8- | [C,C]4 !>![B,,B,]4 | !>![E,E]6 !>![B,D]2 | !>![E,C]4 !>![B,,B,]4 | %406
 !>![E,G,]4 !>![B,,A,]4 | !>![E,B,]4 !>![B,,B,]4 | !>![E,E]4 !>![B,D]4 | !>![E,C]4 !>![B,,B,]4 | %410
 !>![=B,,G,]8- | [B,,G,]4 !>![A,,F,]4 | !>![C,E,]4 !>![E,,C,]4 | %413
 !>![C,,C,]2 !>![D,,D,]2 !>![C,E,]4 | !>![F,,F,]4 !>![D,,D,]2 !>![C,,C,]2 | %415
 !>![B,,,G,,B,,]4 !>![B,,,B,,]4 | !>![A,,G,]4 !>![E,,E,]4 | %417
 !>![B,,E,]2 !>![F,,F,]2 !>![G,,G,]2 !>![A,,A,]2 | !>![B,,E,B,]8 | D,4 !>![C,E,]4 | %420
 !>![F,,F,]4 !>![C,C]4 | !>![B,,B,]4 !>![B,,A,]2 !>![B,,G,]2 | !>![C,F,]2 E,2 !>![A,,C,]4 | %423
 !>![G,,B,,]4 !>![E,,E,]4 | !>![A,,F,]4 !>![F,C]4 | !>![B,,B,]2 G,2 !>![B,,F,]4 | %426
 [=B,,G,]2 z2 ([G,,,G,,]4 | [=A,,,=A,,]4 [=B,,,=B,,]4 | [C,,C,]4 [D,,D,]4) | ([E,,E,]4 [C,,C,]4 | %430
 [B,,,B,,]4 [F,,F,]4 | [D,,D,]4) ([B,,,B,,]4 | [E,,E,]4 [D,,D,]4 | [C,,C,]4 [A,,,A,,]4 | %434
 [G,,,G,,]4 [F,,,F,,]4 | [G,,,G,,]4) [C,E,G,C]4 | [B,,D,F,B,]4 [A,,C,A,]2 [A,,D,]2 | %437
 [G,,E,G,]4 [E,,B,,E,]4 | [A,,,E,,A,,]4 [C,,A,,C,]4 | [E,,G,,B,,E,]4 [C,E,G,C]4 | %440
 [A,,C,F,A,]4 [F,,A,,C,F,]4 | [G,,B,,E,G,]4 [B,,D,F,B,]4 | [E,,G,,B,,E,]2 z2 z4 | z4 z2 !>!E,2 | %444
 !>!F,2 !>!C6- | C8 | [E,,G,,B,,E,]2 z2 z4 | z4 !>!D4- | D4 !>!C4 | !>!G,4 !>!A,4 | [B,,E,G,]8 | %451
 z8 | !>![E,,G,,B,,E,]2 z2 z4 |] %453
V:3
 x2 | x6 | x6 | x6 | x6 | x6 | x6 | x6 | x6 | x6 | x6 | x6 | x6 | x6 | x6 | x6 | x6 | x6 | x6 | %19
 x6 | x6 | x6 | x6 | x6 | x6 | x6 | x6 | x6 | x6 | x6 | x6 | x6 | x6 | x6 | x6 | x6 | x6 | x6 | %38
 x6 | x6 | x6 | x6 | x6 | x6 | x6 | x6 | x6 | x6 | x6 | x6 | x6 | x6 | x6 | x6 | x6 | x6 | x6 | %57
 x6 | x6 | x6 | x6 | x6 | x6 | x6 | x6 | x6 | x6 | x6 | x6 | x6 | x6 | x6 | x6 | x6 | x6 | x6 | %76
 x6 | x6 | x6 | x6 | x4[K:bass] x2 | x6 | x6 | x6 | x6 | x6 | x6 | x6 | x6 | x6 | x6 | x6 | x6 | %93
 x6 | x6 | x6 | x4[K:treble] x2 | x6 | x6 | x6 | x6 | x6 | x6 | x6 | x6 | x6 | x6 | x6 | x6 | x6 | %110
 x6 | x6 | x6 | x6 | x6 | x6 | x6 | x6 | x6 | x6 | x6 | x6 | x6 | x6 | x6 | x6 | x6 | x6 | x6 | %129
 x6 | x6 | x6 |][M:2/4] x4 | x4 | x4 | x4 | x4 | x4 | x4 | x4 | x4 | x4 | x4 | x4 | x4 | x4 | x4 | %147
 x4 | x4 | x4 | x4 | x4 | x4 | x4 | x4 | x4 | x4 | x4 | x4 | x4 | x4 | x4 | x4 | x4 | x4 | x4 | %166
 x4 | x4 | x4 | x4 | x4 | x4 | x4 | x4 | x4 | x4 | x4 | x4 | x4 | x4 | x4 | x4 | x4 | x4 | x4 | %185
 x4 | x4 | x4 | x4 | x4 | x4 | x4 | x4 | x4 | x4 | x4 | x4 | x4 |[M:4/4] x8 | x8 | x8 | x8 | x8 | %203
 x8 | x8 | x8 | x8 | x8 | x8 | x8 | x8 | x8 | x8 | x8 | x8 | x8 | x8 | x8 | x8 | x8 | x8 | x8 | %222
 x8 | x8 | x8 | x8 | x8 | x8 | x8 | x8 |[M:2/4] x4 | x4 | x4 | x4 | x4 | x4 | x4 | x4 | x4 | x4 | %240
 x4 | x4 | x4 | x4 | x4 | x4 | x4 | x4 | x4 | x4 | x4 | x4 | x4 | x4 ||[K:C][M:4/4] x8 | x8 | x8 | %257
 x8 | x8 | x8 | x8 | x8 | x8 | x8 | x8 | x8 | x8 | x8 | x8 | x8 | x8 | x3!8va(! x5 | x8 | %273
 x3!8va)! x5 |][K:Eb][M:2/2] x8 | x8 | x8 | x8 | x8 | x8 | x8 | x8 | x8 | x8 | x8 | x8 | x8 | x8 | %288
 x8 | x8 | x8 | x8 | x8 | x8 | x8 | x8 | x8 | x8 | x8 | x8 | x8 | x8 | x8 | x8 | x8 | x8 | x8 | %307
 x8 | x8 | x8 ||[K:Ab][K:bass] x8 | x8 | x8 | x8 | x8 | x8 | x8 | x8 | x8 | x8 | x8 | x8 | x8 | %323
 x8 | x8 | x8 | x8 | x8 | x8 | x8 | x8 | x8 | x8 | x8 | x8 | x8 | x8 | x8 | x8 | x8 | x8 | x8 | %342
 x4 F,2 G,2 | A,4 x4 | x4[K:treble] x4 | x8 | x8 | x8 | x8 | x8 | x8 | x8 | x8 | x8 | x8 | x8 | %356
 x8 | x8 | x8 | x8 | x8 | x8 | x8 | x8 | x8 | x8 | x8 | x8 | x8 | x8 | x8 | x8 | [C=E]8- | [CE]8 | %374
 x8 | x8 | [DF]8- | [DF]8 | x8 | x8 | x8 | x8 ||[K:Eb] x8 | x8 | x8 | x8 | x8 | x8 | x8 | x8 | x8 | %391
 x8 | x8 | x8 | x8 | x8 | x8 | x8 | x8 | x8 | x8 | x8 | x8 | x8 | x8 | x8 | x8 | x8 | x8 | x8 | %410
 x8 | x8 | x8 | x8 | x8 | x8 | x8 | x8 | x8 | x8 | x8 | x8 | x8 | x8 | x8 | x8 | x8 | x8 | x8 | %429
 x8 | x8 | x8 | x8 | x8 | x8 | x8 | x8 | x8 | x8 | x8 | x8 | x8 | x8 | x8 | x8 | x8 | x8 | x8 | %448
 x8 | x8 | x8 | x8 | x8 |] %453

